images/6560199.svg

<?xml version="1.0" encoding="UTF-8"?>
<svg xmlns="http://www.w3.org/2000/svg" xmlns:xlink="http://www.w3.org/1999/xlink" width="300pt" height="300pt" viewBox="0 0 300 300" version="1.1">
<defs>
<g>
<symbol overflow="visible" id="glyph0-0">
<path style="stroke:none;" d="M 0.796875 2.828125 L 0.796875 -11.28125 L 8.796875 -11.28125 L 8.796875 2.828125 Z M 1.703125 1.9375 L 7.90625 1.9375 L 7.90625 -10.390625 L 1.703125 -10.390625 Z M 1.703125 1.9375 "/>
</symbol>
<symbol overflow="visible" id="glyph0-1">
<path style="stroke:none;" d="M 6.3125 -10.59375 C 5.164062 -10.59375 4.253906 -10.164062 3.578125 -9.3125 C 2.898438 -8.457031 2.5625 -7.296875 2.5625 -5.828125 C 2.5625 -4.359375 2.898438 -3.195312 3.578125 -2.34375 C 4.253906 -1.488281 5.164062 -1.0625 6.3125 -1.0625 C 7.457031 -1.0625 8.363281 -1.488281 9.03125 -2.34375 C 9.695312 -3.195312 10.03125 -4.359375 10.03125 -5.828125 C 10.03125 -7.296875 9.695312 -8.457031 9.03125 -9.3125 C 8.363281 -10.164062 7.457031 -10.59375 6.3125 -10.59375 Z M 6.3125 -11.875 C 7.945312 -11.875 9.253906 -11.328125 10.234375 -10.234375 C 11.210938 -9.140625 11.703125 -7.671875 11.703125 -5.828125 C 11.703125 -3.984375 11.210938 -2.507812 10.234375 -1.40625 C 9.253906 -0.3125 7.945312 0.234375 6.3125 0.234375 C 4.664062 0.234375 3.351562 -0.3125 2.375 -1.40625 C 1.394531 -2.507812 0.90625 -3.984375 0.90625 -5.828125 C 0.90625 -7.671875 1.394531 -9.140625 2.375 -10.234375 C 3.351562 -11.328125 4.664062 -11.875 6.3125 -11.875 Z M 6.3125 -11.875 "/>
</symbol>
<symbol overflow="visible" id="glyph0-2">
<path style="stroke:none;" d="M 1.578125 -11.671875 L 3.703125 -11.671875 L 8.875 -1.90625 L 8.875 -11.671875 L 10.40625 -11.671875 L 10.40625 0 L 8.28125 0 L 3.109375 -9.765625 L 3.109375 0 L 1.578125 0 Z M 1.578125 -11.671875 "/>
</symbol>
<symbol overflow="visible" id="glyph0-3">
<path style="stroke:none;" d="M 1.578125 -11.671875 L 3.15625 -11.671875 L 3.15625 -6.890625 L 8.890625 -6.890625 L 8.890625 -11.671875 L 10.46875 -11.671875 L 10.46875 0 L 8.890625 0 L 8.890625 -5.5625 L 3.15625 -5.5625 L 3.15625 0 L 1.578125 0 Z M 1.578125 -11.671875 "/>
</symbol>
</g>
</defs>
<g id="surface31441">
<rect x="0" y="0" width="300" height="300" style="fill:rgb(100%,100%,100%);fill-opacity:1;stroke:none;"/>
<path style="fill:none;stroke-width:1.2;stroke-linecap:butt;stroke-linejoin:miter;stroke:rgb(0%,0%,0%);stroke-opacity:1;stroke-miterlimit:10;" d="M 180.03125 38.296875 L 203.007812 68.878906 "/>
<path style="fill:none;stroke-width:1.2;stroke-linecap:butt;stroke-linejoin:miter;stroke:rgb(0%,0%,0%);stroke-opacity:1;stroke-miterlimit:10;" d="M 203.007812 68.878906 L 188.011719 104.066406 "/>
<path style="fill:none;stroke-width:1.2;stroke-linecap:butt;stroke-linejoin:miter;stroke:rgb(0%,0%,0%);stroke-opacity:1;stroke-miterlimit:10;" d="M 193.230469 68.867188 L 181.234375 97.019531 "/>
<path style="fill:none;stroke-width:1.2;stroke-linecap:butt;stroke-linejoin:miter;stroke:rgb(0%,0%,0%);stroke-opacity:1;stroke-miterlimit:10;" d="M 188.011719 104.066406 L 218.121094 127.65625 "/>
<path style="fill:none;stroke-width:1.2;stroke-linecap:butt;stroke-linejoin:miter;stroke:rgb(0%,0%,0%);stroke-opacity:1;stroke-miterlimit:10;" d="M 188.011719 104.066406 L 150.144531 98.691406 "/>
<path style="fill:none;stroke-width:1.2;stroke-linecap:butt;stroke-linejoin:miter;stroke:rgb(0%,0%,0%);stroke-opacity:1;stroke-miterlimit:10;" d="M 218.121094 127.65625 L 232.402344 163.144531 "/>
<path style="fill:none;stroke-width:1.2;stroke-linecap:butt;stroke-linejoin:miter;stroke:rgb(0%,0%,0%);stroke-opacity:1;stroke-miterlimit:10;" d="M 232.941406 167.609375 L 270.914062 163 "/>
<path style="fill:none;stroke-width:1.2;stroke-linecap:butt;stroke-linejoin:miter;stroke:rgb(0%,0%,0%);stroke-opacity:1;stroke-miterlimit:10;" d="M 231.859375 158.675781 L 269.828125 154.066406 "/>
<path style="fill:none;stroke-width:1.2;stroke-linecap:butt;stroke-linejoin:miter;stroke:rgb(0%,0%,0%);stroke-opacity:1;stroke-miterlimit:10;" d="M 232.402344 163.144531 L 227.023438 201.011719 "/>
<path style="fill:none;stroke-width:1.2;stroke-linecap:butt;stroke-linejoin:miter;stroke:rgb(0%,0%,0%);stroke-opacity:1;stroke-miterlimit:10;" d="M 227.023438 201.011719 L 203.433594 231.121094 "/>
<path style="fill:none;stroke-width:1;stroke-linecap:butt;stroke-linejoin:miter;stroke:rgb(0%,0%,0%);stroke-opacity:1;stroke-miterlimit:10;" d="M 227.023438 201.011719 L 227.023438 201.011719 M 230.023438 200.914062 L 229.808594 199.894531 M 233.019531 200.8125 L 232.589844 198.773438 M 236.019531 200.714844 L 235.375 197.652344 M 239.015625 200.613281 L 238.15625 196.53125 M 242.015625 200.511719 L 240.9375 195.410156 M 245.015625 200.414062 L 243.722656 194.292969 M 248.011719 200.3125 L 246.503906 193.171875 M 251.011719 200.210938 L 249.289062 192.050781 M 254.007812 200.113281 L 252.070312 190.929688 M 257.007812 200.011719 L 254.855469 189.808594 M 260.007812 199.914062 L 257.636719 188.691406 M 263.003906 199.8125 L 260.417969 187.570312 M 265.84375 199.71875 L 263.054688 186.507812 "/>
<path style="fill:none;stroke-width:1.2;stroke-linecap:butt;stroke-linejoin:miter;stroke:rgb(0%,0%,0%);stroke-opacity:1;stroke-miterlimit:10;" d="M 227.023438 201.011719 L 237.136719 217.246094 "/>
<path style="fill:none;stroke-width:1.2;stroke-linecap:butt;stroke-linejoin:miter;stroke:rgb(100%,0%,0%);stroke-opacity:1;stroke-miterlimit:10;" d="M 237.136719 217.246094 L 247.25 233.480469 "/>
<path style="fill:none;stroke-width:1.2;stroke-linecap:butt;stroke-linejoin:miter;stroke:rgb(0%,0%,0%);stroke-opacity:1;stroke-miterlimit:10;" d="M 199.835938 233.824219 L 211.324219 249.113281 "/>
<path style="fill:none;stroke-width:1.2;stroke-linecap:butt;stroke-linejoin:miter;stroke:rgb(100%,0%,0%);stroke-opacity:1;stroke-miterlimit:10;" d="M 211.324219 249.113281 L 222.8125 264.40625 "/>
<path style="fill:none;stroke-width:1.2;stroke-linecap:butt;stroke-linejoin:miter;stroke:rgb(0%,0%,0%);stroke-opacity:1;stroke-miterlimit:10;" d="M 207.03125 228.417969 L 218.519531 243.707031 "/>
<path style="fill:none;stroke-width:1.2;stroke-linecap:butt;stroke-linejoin:miter;stroke:rgb(100%,0%,0%);stroke-opacity:1;stroke-miterlimit:10;" d="M 218.519531 243.707031 L 230.007812 259 "/>
<path style="fill:none;stroke-width:1.2;stroke-linecap:butt;stroke-linejoin:miter;stroke:rgb(0%,0%,0%);stroke-opacity:1;stroke-miterlimit:10;" d="M 203.433594 231.121094 L 185.691406 238.261719 "/>
<path style="fill:none;stroke-width:1.2;stroke-linecap:butt;stroke-linejoin:miter;stroke:rgb(100%,0%,0%);stroke-opacity:1;stroke-miterlimit:10;" d="M 185.691406 238.261719 L 167.949219 245.402344 "/>
<path style=" stroke:none;fill-rule:nonzero;fill:rgb(100%,100%,100%);fill-opacity:1;" d="M 220.410156 252.203125 L 233.410156 252.203125 L 233.410156 271.203125 L 220.410156 271.203125 Z M 220.410156 252.203125 "/>
<g style="fill:rgb(100%,0%,0%);fill-opacity:1;">
  <use xlink:href="#glyph0-1" x="220.410156" y="267.054688"/>
</g>
<path style="fill:none;stroke-width:1.2;stroke-linecap:butt;stroke-linejoin:miter;stroke:rgb(100%,0%,0%);stroke-opacity:1;stroke-miterlimit:10;" d="M 167.949219 245.402344 L 149.011719 242.710938 "/>
<path style="fill:none;stroke-width:1.2;stroke-linecap:butt;stroke-linejoin:miter;stroke:rgb(0%,0%,0%);stroke-opacity:1;stroke-miterlimit:10;" d="M 149.011719 242.710938 L 130.078125 240.023438 "/>
<path style=" stroke:none;fill-rule:nonzero;fill:rgb(100%,100%,100%);fill-opacity:1;" d="M 161.949219 235.902344 L 174.949219 235.902344 L 174.949219 254.902344 L 161.949219 254.902344 Z M 161.949219 235.902344 "/>
<g style="fill:rgb(100%,0%,0%);fill-opacity:1;">
  <use xlink:href="#glyph0-1" x="161.949219" y="250.753906"/>
</g>
<path style="fill:none;stroke-width:1.2;stroke-linecap:butt;stroke-linejoin:miter;stroke:rgb(0%,0%,0%);stroke-opacity:1;stroke-miterlimit:10;" d="M 130.078125 240.023438 L 99.96875 216.433594 "/>
<path style="fill:none;stroke-width:1.2;stroke-linecap:butt;stroke-linejoin:miter;stroke:rgb(0%,0%,0%);stroke-opacity:1;stroke-miterlimit:10;" d="M 99.96875 216.433594 L 70.632812 240.976562 "/>
<path style="fill:none;stroke-width:1.2;stroke-linecap:butt;stroke-linejoin:miter;stroke:rgb(0%,0%,0%);stroke-opacity:1;stroke-miterlimit:10;" d="M 91.261719 211.984375 L 67.792969 231.621094 "/>
<path style="fill:none;stroke-width:1.2;stroke-linecap:butt;stroke-linejoin:miter;stroke:rgb(0%,0%,0%);stroke-opacity:1;stroke-miterlimit:10;" d="M 85.691406 180.949219 L 99.96875 216.433594 "/>
<path style="fill:none;stroke-width:1.2;stroke-linecap:butt;stroke-linejoin:miter;stroke:rgb(0%,0%,0%);stroke-opacity:1;stroke-miterlimit:10;" d="M 70.632812 240.976562 L 38.222656 220.664062 "/>
<path style="fill:none;stroke-width:1.2;stroke-linecap:butt;stroke-linejoin:miter;stroke:rgb(0%,0%,0%);stroke-opacity:1;stroke-miterlimit:10;" d="M 38.222656 220.664062 L 42.878906 202.113281 "/>
<path style="fill:none;stroke-width:1.2;stroke-linecap:butt;stroke-linejoin:miter;stroke:rgb(0%,0%,100%);stroke-opacity:1;stroke-miterlimit:10;" d="M 42.878906 202.113281 L 47.53125 183.5625 "/>
<path style="fill:none;stroke-width:1;stroke-linecap:butt;stroke-linejoin:miter;stroke:rgb(0%,0%,0%);stroke-opacity:1;stroke-miterlimit:10;" d="M 85.691406 180.949219 L 85.691406 180.949219 M 82.707031 180.628906 L 82.777344 181.671875 M 79.722656 180.3125 L 79.867188 182.390625 M 76.742188 179.992188 L 76.957031 183.113281 M 73.757812 179.675781 L 74.042969 183.835938 M 70.773438 179.355469 L 71.132812 184.558594 M 67.792969 179.039062 L 68.21875 185.28125 M 64.808594 178.722656 L 65.308594 186.003906 M 61.824219 178.402344 L 62.394531 186.726562 M 58.84375 178.085938 L 59.484375 187.445312 M 55.859375 177.765625 L 56.574219 188.167969 M 52.875 177.449219 L 53.660156 188.890625 M 49.894531 177.128906 L 50.75 189.613281 M 47.070312 176.828125 L 47.992188 190.296875 "/>
<path style="fill:none;stroke-width:1.2;stroke-linecap:butt;stroke-linejoin:miter;stroke:rgb(0%,0%,0%);stroke-opacity:1;stroke-miterlimit:10;" d="M 29.628906 150.535156 L 38.578125 167.046875 "/>
<path style="fill:none;stroke-width:1.2;stroke-linecap:butt;stroke-linejoin:miter;stroke:rgb(0%,0%,100%);stroke-opacity:1;stroke-miterlimit:10;" d="M 38.578125 167.046875 L 47.53125 183.5625 "/>
<path style=" stroke:none;fill-rule:nonzero;fill:rgb(100%,100%,100%);fill-opacity:1;" d="M 41.53125 174.0625 L 53.53125 174.0625 L 53.53125 193.0625 L 41.53125 193.0625 Z M 41.53125 174.0625 "/>
<g style="fill:rgb(0%,0%,100%);fill-opacity:1;">
  <use xlink:href="#glyph0-2" x="41.53125" y="188.914062"/>
</g>
<path style="fill:none;stroke-width:1.2;stroke-linecap:butt;stroke-linejoin:miter;stroke:rgb(0%,0%,0%);stroke-opacity:1;stroke-miterlimit:10;" d="M 85.691406 180.949219 L 91.066406 143.078125 "/>
<path style=" stroke:none;fill-rule:nonzero;fill:rgb(0%,0%,0%);fill-opacity:1;" d="M 91.066406 143.078125 L 60.917969 118.589844 L 54.359375 130.386719 Z M 91.066406 143.078125 "/>
<path style="fill:none;stroke-width:1.2;stroke-linecap:butt;stroke-linejoin:miter;stroke:rgb(0%,0%,0%);stroke-opacity:1;stroke-miterlimit:10;" d="M 91.066406 143.078125 L 102.863281 128.023438 "/>
<path style="fill:none;stroke-width:1.2;stroke-linecap:butt;stroke-linejoin:miter;stroke:rgb(100%,0%,0%);stroke-opacity:1;stroke-miterlimit:10;" d="M 102.863281 128.023438 L 114.65625 112.96875 "/>
<path style="fill:none;stroke-width:1.2;stroke-linecap:butt;stroke-linejoin:miter;stroke:rgb(0%,0%,0%);stroke-opacity:1;stroke-miterlimit:10;" d="M 57.640625 124.488281 L 29.628906 150.535156 "/>
<path style="fill:none;stroke-width:1.2;stroke-linecap:butt;stroke-linejoin:miter;stroke:rgb(100%,0%,0%);stroke-opacity:1;stroke-miterlimit:10;" d="M 114.65625 112.96875 L 132.402344 105.828125 "/>
<path style="fill:none;stroke-width:1.2;stroke-linecap:butt;stroke-linejoin:miter;stroke:rgb(0%,0%,0%);stroke-opacity:1;stroke-miterlimit:10;" d="M 132.402344 105.828125 L 150.144531 98.691406 "/>
<path style=" stroke:none;fill-rule:nonzero;fill:rgb(100%,100%,100%);fill-opacity:1;" d="M 108.65625 103.46875 L 121.65625 103.46875 L 121.65625 122.46875 L 108.65625 122.46875 Z M 108.65625 103.46875 "/>
<g style="fill:rgb(100%,0%,0%);fill-opacity:1;">
  <use xlink:href="#glyph0-1" x="108.65625" y="118.320312"/>
</g>
<path style="fill:none;stroke-width:1.2;stroke-linecap:butt;stroke-linejoin:miter;stroke:rgb(0%,0%,0%);stroke-opacity:1;stroke-miterlimit:10;" d="M 154.609375 98.148438 L 152.304688 79.164062 "/>
<path style="fill:none;stroke-width:1.2;stroke-linecap:butt;stroke-linejoin:miter;stroke:rgb(100%,0%,0%);stroke-opacity:1;stroke-miterlimit:10;" d="M 152.304688 79.164062 L 150 60.175781 "/>
<path style="fill:none;stroke-width:1.2;stroke-linecap:butt;stroke-linejoin:miter;stroke:rgb(0%,0%,0%);stroke-opacity:1;stroke-miterlimit:10;" d="M 145.675781 99.234375 L 143.371094 80.246094 "/>
<path style="fill:none;stroke-width:1.2;stroke-linecap:butt;stroke-linejoin:miter;stroke:rgb(100%,0%,0%);stroke-opacity:1;stroke-miterlimit:10;" d="M 143.371094 80.246094 L 141.066406 61.261719 "/>
<path style=" stroke:none;fill-rule:nonzero;fill:rgb(100%,100%,100%);fill-opacity:1;" d="M 139.535156 51.21875 L 152.535156 51.21875 L 152.535156 70.21875 L 139.535156 70.21875 Z M 139.535156 51.21875 "/>
<g style="fill:rgb(100%,0%,0%);fill-opacity:1;">
  <use xlink:href="#glyph0-1" x="139.535156" y="66.070312"/>
</g>
<path style=" stroke:none;fill-rule:nonzero;fill:rgb(100%,100%,100%);fill-opacity:1;" d="M 235.25 223.980469 L 260.25 223.980469 L 260.25 242.980469 L 235.25 242.980469 Z M 235.25 223.980469 "/>
<g style="fill:rgb(100%,0%,0%);fill-opacity:1;">
  <use xlink:href="#glyph0-1" x="235.25" y="238.832031"/>
  <use xlink:href="#glyph0-3" x="247.84375" y="238.832031"/>
</g>
</g>
</svg>

<svg xmlns="http://www.w3.org/2000/svg" xmlns:xlink="http://www.w3.org/1999/xlink" width="300pt" height="300pt" viewBox="0 0 300 300"><defs><symbol overflow="visible"><path d="M.797 2.828v-14.11h8V2.83zm.906-.89h6.203v-12.33H1.703zm0 0"/></symbol><symbol overflow="visible" id="a"><path d="M6.313-10.594c-1.15 0-2.06.43-2.735 1.28-.68.857-1.015 2.017-1.015 3.486 0 1.47.335 2.633 1.015 3.484.676.856 1.586 1.28 2.735 1.28 1.144.002 2.05-.424 2.718-1.28.665-.85 1-2.015 1-3.484 0-1.47-.335-2.63-1-3.484-.667-.852-1.573-1.282-2.717-1.282zm0-1.28c1.632 0 2.94.546 3.92 1.64.978 1.093 1.47 2.562 1.47 4.406 0 1.844-.492 3.32-1.47 4.422-.98 1.093-2.288 1.64-3.92 1.64-1.65 0-2.96-.546-3.938-1.64-.98-1.102-1.47-2.578-1.47-4.422 0-1.844.49-3.313 1.47-4.406.977-1.094 2.29-1.64 3.938-1.64zm0 0"/></symbol><symbol overflow="visible" id="b"><path d="M1.578-11.672h2.125l5.172 9.766v-9.766h1.53V0H8.282L3.11-9.766V0H1.577zm0 0"/></symbol><symbol overflow="visible" id="c"><path d="M1.578-11.672h1.578v4.78H8.89v-4.78h1.58V0H8.89v-5.563H3.157V0H1.578zm0 0"/></symbol></defs><g><path fill="#fff" d="M0 0h300v300H0z"/><path d="M180.03 38.297L203.01 68.88M203.008 68.88l-14.996 35.186M193.23 68.867L181.234 97.02M188.012 104.066l30.11 23.59M188.012 104.066l-37.867-5.375M218.12 127.656l14.282 35.49M232.94 167.61l37.974-4.61M231.86 158.676l37.968-4.61M232.402 163.145l-5.38 37.867M227.023 201.012l-23.59 30.11" stroke-width="1.2" stroke="#000" stroke-miterlimit="10" fill="none"/><path d="M227.023 201.012m3-.098l-.214-1.02m3.21.918l-.43-2.04m3.43 1.943l-.645-3.063m3.64 2.96l-.86-4.08m3.86 3.98l-1.077-5.102m4.078 5.004l-1.293-6.12m4.29 6.018l-1.51-7.14m4.51 7.04l-1.724-8.16m4.718 8.06l-1.938-9.182m4.938 9.082l-2.153-10.203m5.153 10.104l-2.37-11.223m5.366 11.123l-2.586-12.243m5.426 12.15l-2.79-13.212" stroke="#000" stroke-miterlimit="10" fill="none"/><path d="M227.023 201.012l10.114 16.234" stroke-width="1.2" stroke="#000" stroke-miterlimit="10" fill="none"/><path d="M237.137 217.246l10.113 16.234" stroke-width="1.2" stroke="#f00" stroke-miterlimit="10" fill="none"/><path d="M199.836 233.824l11.488 15.29" stroke-width="1.2" stroke="#000" stroke-miterlimit="10" fill="none"/><path d="M211.324 249.113l11.488 15.293" stroke-width="1.2" stroke="#f00" stroke-miterlimit="10" fill="none"/><path d="M207.03 228.418l11.49 15.29" stroke-width="1.2" stroke="#000" stroke-miterlimit="10" fill="none"/><path d="M218.52 243.707L230.008 259" stroke-width="1.2" stroke="#f00" stroke-miterlimit="10" fill="none"/><path d="M203.434 231.12l-17.743 7.142" stroke-width="1.2" stroke="#000" stroke-miterlimit="10" fill="none"/><path d="M185.69 238.262l-17.74 7.14" stroke-width="1.2" stroke="#f00" stroke-miterlimit="10" fill="none"/><path d="M220.41 252.203h13v19h-13zm0 0" fill="#fff"/><use xlink:href="#a" x="220.41" y="267.055" fill="#f00"/><path d="M167.95 245.402l-18.938-2.69" stroke-width="1.2" stroke="#f00" stroke-miterlimit="10" fill="none"/><path d="M149.012 242.71l-18.934-2.687" stroke-width="1.2" stroke="#000" stroke-miterlimit="10" fill="none"/><path d="M161.95 235.902h13v19h-13zm0 0" fill="#fff"/><use xlink:href="#a" x="161.949" y="250.754" fill="#f00"/><path d="M130.078 240.023l-30.11-23.59M99.97 216.434l-29.337 24.543M91.262 211.984l-23.47 19.637M85.69 180.95l14.28 35.484M70.633 240.977l-32.41-20.313M38.223 220.664l4.656-18.55" stroke-width="1.2" stroke="#000" stroke-miterlimit="10" fill="none"/><path d="M42.88 202.113l4.65-18.55" stroke-width="1.2" stroke="#00f" stroke-miterlimit="10" fill="none"/><path d="M85.69 180.95m-2.983-.32l.07 1.042m-3.054-1.36l.144 2.08m-3.125-2.4l.215 3.12m-3.2-3.436l.286 4.16m-3.27-4.48l.36 5.203m-3.34-5.52l.426 6.24m-3.41-6.557l.5 7.28m-3.486-7.6l.57 8.324m-3.55-8.64l.64 9.358m-3.625-9.68l.714 10.403m-3.7-10.72l.786 11.443m-3.765-11.76l.855 12.483m-3.68-12.785l.922 13.47" stroke="#000" stroke-miterlimit="10" fill="none"/><path d="M29.63 150.535l8.948 16.512" stroke-width="1.2" stroke="#000" stroke-miterlimit="10" fill="none"/><path d="M38.578 167.047l8.953 16.516" stroke-width="1.2" stroke="#00f" stroke-miterlimit="10" fill="none"/><path d="M41.53 174.063h12v19h-12zm0 0" fill="#fff"/><use xlink:href="#b" x="41.531" y="188.914" fill="#00f"/><path d="M85.69 180.95l5.376-37.872" stroke-width="1.2" stroke="#000" stroke-miterlimit="10" fill="none"/><path d="M91.066 143.078L60.918 118.59l-6.56 11.797zm0 0"/><path d="M91.066 143.078l11.797-15.055" stroke-width="1.2" stroke="#000" stroke-miterlimit="10" fill="none"/><path d="M102.863 128.023l11.793-15.054" stroke-width="1.2" stroke="#f00" stroke-miterlimit="10" fill="none"/><path d="M57.64 124.488l-28.01 26.047" stroke-width="1.2" stroke="#000" stroke-miterlimit="10" fill="none"/><path d="M114.656 112.97l17.746-7.142" stroke-width="1.2" stroke="#f00" stroke-miterlimit="10" fill="none"/><path d="M132.402 105.828l17.743-7.137" stroke-width="1.2" stroke="#000" stroke-miterlimit="10" fill="none"/><path d="M108.656 103.47h13v19h-13zm0 0" fill="#fff"/><use xlink:href="#a" x="108.656" y="118.32" fill="#f00"/><path d="M154.61 98.148l-2.305-18.984" stroke-width="1.2" stroke="#000" stroke-miterlimit="10" fill="none"/><path d="M152.305 79.164L150 60.176" stroke-width="1.2" stroke="#f00" stroke-miterlimit="10" fill="none"/><path d="M145.676 99.234l-2.305-18.988" stroke-width="1.2" stroke="#000" stroke-miterlimit="10" fill="none"/><path d="M143.37 80.246l-2.304-18.984" stroke-width="1.2" stroke="#f00" stroke-miterlimit="10" fill="none"/><path d="M139.535 51.22h13v19h-13zm0 0" fill="#fff"/><use xlink:href="#a" x="139.535" y="66.07" fill="#f00"/><path d="M235.25 223.98h25v19h-25zm0 0" fill="#fff"/><g fill="#f00"><use xlink:href="#a" x="235.25" y="238.832"/><use xlink:href="#c" x="247.844" y="238.832"/></g></g></svg>
